X:1
T:Bessie MacIntyre  "Arr G. Bottoni 9/96 for BMSPB"
M:C
L:1/8
Q:80
C:Wm MacLean
S:Reel
K:HP
[| {g}A/2{d}A3/2{g}e3/2c/2{g}e3/2f/2{g}e3/2c/2 | \
{g}A/2{d}A3/2{g}c/2e3/2{g}f3/2e/2{g}f/2a3/2 | \
A/2{d}A3/2{g}e3/2c/2{g}e3/2f/2{g}e3/2c/2 |
{g}B/2{d}B3/2{g}c/2e3/2{g}f2{g}e/2a3/2 | \
{g}A/2{d}A3/2{g}e3/2c/2{g}e3/2f/2{g}e3/2c/2 | \
{g}A/2{d}A3/2{g}c/2e3/2{g}f3/2e/2{g}f/2a3/2 |
{g}A/2{d}A3/2{g}e3/2g/2{a}f2{GdG}e3/2c/2 | \
{g}B/2{d}B3/2{g}c/2e3/2{g}f2{g}e3/2f/2|] [ | \
a2{GdG}a3/2e/2{g}fe/2{g}c/2e3/2 |
a2{GdG}a3/2e/2{g}f2{g}e3/2f/2 | \
a2{GdG}a3/2e/2{g}f3/2e/2{g}c/2e3/2 | \
{g}B/2{d}B3/2{g}c/2e3/2{g}f2{g}e3/2f/2 |
a2{GdG}a3/2e/2{g}fe/2{g}c/2e3/2 | \
a2{GdG}a3/2e/2{g}f2{g}e3/2f/2 | \
a3/2f/2{g}e3/2f/2{g}e3/2c/2{g}B/2{d}A3/2 |
{g}B/2{d}B3/2{g}c/2e3/2{g}f2{g}e/2a3/2|] [ | \
{g}A3/2{d}A/2{e}A3/2{d}c/2{g}A3/2{d}A/2{e}A3/2{d}c/2 | \
{g}A/2{d}A3/2{g}c/2e3/2{g}f3/2e/2{g}f/2a3/2 |
{g}A3/2{d}A/2{e}A3/2{d}c/2{g}A3/2{d}A/2{e}A3/2{d}c/2 | \
{g}B/2{d}B3/2{g}c/2e3/2{g}f2{g}e/2a3/2 | \
{g}A3/2{d}A/2{e}A3/2{d}c/2{g}A3/2{d}A/2{e}A3/2{d}c/2 |
{g}A/2{d}A3/2{g}c/2e3/2{g}f3/2e/2{g}f/2a3/2 | \
{g}A/2{d}A3/2{g}e3/2a/2{a}f2{GdG}e3/2c/2 | \
{g}B/2{d}B3/2{g}c/2e3/2{g}f2{g}e3/2f/2| [ |
{ag}a2c/2a3/2e/2a3/2c/2e3/2 | \
{ag}a2c/2a3/2f3/2e/2{g}f3/2g/2 | \
{ag}a2c/2a3/2e/2a3/2c/2a3/2 |
B/2{d}B3/2{g}c/2e3/2{g}f2{g}e3/2f/2 | \
{ag}a2c/2a3/2e/2a3/2c/2e3/2 | \
{ag}a2c/2a3/2f3/2e/2{g}f3/2g/2 |
a3/2f/2{g}e3/2f/2{g}e3/2c/2{g}B/2{d}A3/2 | \
B/2{d}B3/2{g}c/2e3/2{g}f2{g}e|]
